!!!COM: Bach, Johann Sebastian
!!!OTL: 258. Meine Augen schliess' ich jetzt
!!!ONM: No. 258
!!!OCL: Erk
!!!SCA: BWV 378
!!!YOE: Riemenschneider, Albert
!!!OPR: 371 Harmonized Chorales and 69 Chorale Melodies with Figured Bass
!!!OPT: Bach Chorale Harmonizations
**harm	**root	**kern	**kern	**kern	**kern
!	!	!bass	!tenor	!alto	!sprno
*Iorgan	*Iorgan	*Iorgan	*Iorgan	*Iorgan	*Iorgan
*k[f#c#g#d#a#]	*k[f#c#g#d#a#]	*k[f#c#g#d#a#]	*k[f#c#g#d#a#]	*k[f#c#g#d#a#]	*k[f#c#g#d#a#]
*B:	*B:	*B:	*B:	*B:	*B:
*met(c)	*met(c)	*met(c)	*met(c)	*met(c)	*met(c)
*M4/4	*M4/4	*M4/4	*M4/4	*M4/4	*M4/4
*MM60	*MM60	*MM60	*MM60	*MM60	*MM60
I	4GG	8BB	8d#	4f#	4b
.	.	8C#	8c#	.	.
=1	=1	=1	=1	=1	=1
Ib	4GG	8D#	4B	4f#	4b
.	.	8E	.	.	.
V	4DD	8F#	4A#	4c#	4f#
.	.	8E	.	.	.
Ib	4GG	4D#	4B	4f#	4b
viiob	4FF#	4C#	4e	8g#	4cc#
.	.	.	.	8a#	.
=2	=2	=2	=2	=2	=2
I;	2.GG;	2BB;	2f#;	2b;	2dd#;
.	.	4r	4r	4r	4r
Ib	4GG	4D#	4f#	[4b	4ff#
=3	=3	=3	=3	=3	=3
IV	4CC	4.E	4e	8b]	4gg#
.	.	.	.	8a#	.
Ib	4GG	.	4f#	[4b	4ff#
.	.	8D#	.	.	.
ii7	4AA	4C#	8g#	8b]	4.ee
.	.	.	16f#	16a#	.
.	.	.	16e	16g#	.
V	4DD	4FF#	4f#	4a#	.
.	.	.	.	.	8ff#
=4	=4	=4	=4	=4	=4
I;	2GG;	2BB;	2f#;	2b;	2dd#;
r	4r	4r	4r	4r	4r
I	4GG	4BB	4d#	[4b	4ff#
=5	=5	=5	=5	=5	=5
viiob	4FF#	4C#	4e	8b]	4ee
.	.	.	.	8a#	.
Ib	4GG	8D#	4f#	[4b	4dd#
.	.	8E	.	.	.
V	4DD	4F#	[4f#	8b]	4cc#
.	.	.	.	8a#	.
viiob/V	4CC#	4G#	8f#]	8b	4b
.	.	.	8e#	8B	.
=6	=6	=6	=6	=6	=6
V;	2DD;	2F#;	2a#;	2f#;	2cc#;
r	4r	4r	4r	4r	4r
Vb/vi	4BB	4F##	4d#	4a#	4dd#
=7	=7	=7	=7	=7	=7
vi	4EE	4.G#	4d#	8a#	4b
.	.	.	.	16g#	.
.	.	.	.	16a#	.
IVb	8CC	.	8g#	8b	4ee
V7b	8DD	8A#	8f#	[8cc#	.
I	4GG	4B	4f#	8cc#]	4dd#
.	.	.	.	8b	.
V	4DD	4F#	8.f#	8b	4cc#
.	.	.	.	8a#	.
.	.	.	16e	.	.
=8	=8	=8	=8	=8	=8
I;	2GG;	2BB;	2d#;	2f#;	2b;
r	4r	4r	4r	4r	4r
I	4GG	8BB	4f#	4b	8dd#
.	.	8C#	.	.	8ee
=9	=9	=9	=9	=9	=9
!!linebreak: 2
Ib	4GG	4.D#	8f#	4b	4ff#
.	.	.	8e	.	.
Ib	8GG	.	4d#	4b	4ff#
vi7	8EE	8G#	.	.	.
ii7	4AA	4C#	4e	8b	4ee
.	.	.	.	8a#	.
Ib	4GG	8D#	4f#	4b	4dd#
.	.	8E	.	.	.
=10	=10	=10	=10	=10	=10
V;	2DD;	2F#;	2f#;	4b	2cc#;
.	.	.	.	4a#;	.
r	4r	4r	4r	4r	4r
Vb/vi	4BB	4F##	4d#	4a#	4dd#
=11	=11	=11	=11	=11	=11
vi	4EE	8G#	8d#	4g#	4b
.	.	8F#	8e	.	.
Ib	4GG	8E	4f#	4f#	4b
.	.	8D#	.	.	.
iib	4AA	8E	4e	4g#	4cc#
.	.	8D#	.	.	.
Vb/ii	4EE	8C#	[4d#	4g#	4dd#
.	.	8BB#	.	.	.
=12	=12	=12	=12	=12	=12
ii	4AA	8C#	8d#]	2g#	2ee
.	.	8D#	16c#	.	.
.	.	.	16B#	.	.
iib	4AA	8E	4c#	.	.
.	.	8F#	.	.	.
VI;	4EE;	4G#;	8c#	4g#;	4dd#;
.	.	.	8B#;	.	.
Vb/IV	4GG	4D#	4B	8f#	4ff#
.	.	.	.	8a	.
=13	=13	=13	=13	=13	=13
IV	4CC	4E	4B	8g#	4ee
.	.	.	.	4b	.
V	4DD	4F#	4f#	.	4cc#
.	.	.	.	8a#y	.
I	4GG	8B	4f#	4b	4dd#
.	.	8A#	.	.	.
IVb	4CC	4G#	4g#	4b	4ee
=14	=14	=14	=14	=14	=14
Ib;	2GG;	2D#;	2f#;	2b;	2ff#;
r	4r	4r	4r	4r	4r
vi	4EE	8G#	4d#	[4g#	4b
.	.	8F#	.	.	.
=15	=15	=15	=15	=15	=15
iib	8AA	4E	8e	8g#]	4cc#
V7d	8DD	.	8f#	8a#	.
Ib	8GG	8D#	8f#	[4b	4dd#
vi	8EE	8G#	16g#	.	.
.	.	.	16f#	.	.
viiob	4FF#	4C#	4e	8b]	4ee
.	.	.	.	8a#	.
Ib	4GG	8D#	4f#	4b	4dd#
.	.	8BB	.	.	.
=16	=16	=16	=16	=16	=16
ii7b	4AA	4E	4g#	8b	2cc#
.	.	.	.	16a#	.
.	.	.	.	16g#	.
V	4DD	4F#	8.f#	4a#	.
.	.	.	16e	.	.
I;	4GG;	4BB;	4d#;	4f#;	4b;
==	==	==	==	==	==
*-	*-	*-	*-	*-	*-
!!!CDT: 1685/3//-1750/7/28
!!!OCY: Deutschland
!!!AGN: chorale
!!!AST: Baroque
!!!AIN: vox
!!!YOY: 1941
!!!PPP: New York; London
!!!PPR: G. Schirmer
!!!ENC: David Huron
!!!EED: David Huron
!!!YEN: United States of America
!!!YER: 1992
!!!YEC: Copyright 1992 David Huron
!!!YEM: Rights to all derivative electronic formats reserved.
!!!YER: March 20, 1996
!!!AMT: simple quadruple
!!!EEV: 1.1
!!chor2scor: -l 2 -s 0.6 -o %b.pmx
